!!!!SEGMENT: pl-wtm--r-909-m--003_moniuszko-stanislaw-witolorauda.krn
!!!cenid: 18xx:2865
!!!COM: Moniuszko, Stanisław
!!!COM-rismid: pe30008351
!!!CDT: 1819/05/05-1872/06/04
!!!CNT: Polish
!!!GTL: Witolorauda
!!!OTL: 3.
!!!PDT: 1893
!!!AGN:
!!!SMS-siglum: PL-Wtm
!!!SMS-shelfmark: R 909/M
!!!SMS-shelfwork: 003 G
!!!SMS-variant:
!!!SMS-altvar:
!!!NIFC-rismid: 1001099305
!!!URL-scan: http://repozytorium.nifc.pl/skany/pl-wtm-nut--r909m
!!!ONB-nifc: UWAGA: numeracja plików 001-005 zgodna z numeracją Raud w źródle
**kern	**kern	**dynam	**kern	**dynam	**kern	**text	**text	**dynam	**kern	**kern	**kern	**kern	**kern	**kern	**kern	**kern	**dynam	**kern	**dynam	**kern	**dynam	**kern	**dynam	**kern	**dynam	**kern	**dynam
*part16	*part15	*part15	*part14	*part14	*part14	*part14	*part14	*part14	*part13	*part12	*part11	*part10	*part9	*part8	*part7	*part6	*part6	*part5	*part5	*part4	*part4	*part3	*part3	*part2	*part2	*part1	*part1
*staff17	*staff16	*	*staff15	*	*staff14	*staff14	*staff14	*	*staff13	*staff12	*staff11	*staff10	*staff9	*staff8	*staff7	*staff6	*	*staff5	*	*staff4	*	*staff3	*	*staff2	*	*staff1	*
*I"Baſso	*I"Cello	*	*I"Chór	*	*I"Chór	*	*	*	*I"Viola	*I"Violino II	*I"Violino I	*I"Cassa	*I"Trombon 3	*I"Tromboni 1/2	*I"Trombi 1/2 F	*I"Corni 1/2 F	*	*I"Fagotti	*	*I"Clarinetto 2	*	*I"Clarinetto I	*	*I"Oboa	*	*I"Flauto	*
*I'cb	*I'vlc	*	*coro	*	*I'coro	*	*	*	*I'vla	*I'vl 2	*I'vl 1	*I'cassa	*I'trb 3	*I'trb 1 and 2	*I'tr 1 and 2	*I'cor 1 and 2	*	*I'fag	*	*I'cl 2	*	*I'cl 1	*	*I'ob	*	*I'fl	*
*clefF4	*clefF4	*	*clefF4	*	*clefG2	*	*	*	*clefC3	*clefG2	*clefG2	*clefF4	*clefF4	*clefF4	*clefG2	*clefG2	*	*clefF4	*	*clefG2	*	*clefG2	*	*clefG2	*	*clefG2	*
*ITrd0c0	*	*	*	*	*	*	*	*	*	*	*	*	*	*	*ITrd-3c-5	*ITrd4c7	*	*	*	*ITrd1c2	*	*ITrd1c2	*	*	*	*	*
*k[b-e-]	*k[b-e-]	*	*k[b-e-]	*	*k[b-e-]	*	*	*	*k[b-e-]	*k[b-e-]	*k[b-e-]	*	*k[b-e-]	*k[b-e-]	*k[b-e-]	*k[b-e-]	*	*k[b-e-]	*	*k[b-e-]	*	*k[b-e-]	*	*k[b-e-]	*	*k[b-e-]	*
*B-:	*B-:	*	*B-:	*	*B-:	*	*	*	*B-:	*B-:	*B-:	*	*B-:	*B-:	*B-:	*B-:	*	*B-:	*	*B-:	*	*B-:	*	*B-:	*	*B-:	*
*M6/8	*M6/8	*	*M6/8	*	*M6/8	*	*	*	*M6/8	*M6/8	*M6/8	*M6/8	*M6/8	*M6/8	*M6/8	*M6/8	*	*M6/8	*	*M6/8	*	*M6/8	*	*M6/8	*	*M6/8	*
*>[A,A]	*>[A,A]	*	*>[A,A]	*	*>[A,A]	*	*	*	*>[A,A]	*>[A,A]	*>[A,A]	*>[A,A]	*>[A,A]	*>[A,A]	*>[A,A]	*>[A,A]	*	*>[A,A]	*	*>[A,A]	*	*>[A,A]	*	*>[A,A]	*	*>[A,A]	*
*>A	*>A	*	*>A	*	*>A	*	*	*	*>A	*>A	*>A	*>A	*>A	*>A	*>A	*>A	*	*>A	*	*>A	*	*>A	*	*>A	*	*>A	*
!	!	!	!	!	!	!	!	!	!	!	!LO:TX:a:t=pizz.	!	!	!	!	!	!	!	!	!	!	!	!	!	!	!LO:TX:a:t=Allegretto	!
!LO:TX:a:t=pizz	!LO:TX:a:t=pizz.	!	!	!	!	!	!	!	!	!LO:TX:a:t=pizz	!LO:TX:a:t=Allegretto	!	!	!	!	!	!	!	!	!	!	!	!	!	!	!LO:TX:a:t=Rauda 3cia	!
!	!	!	!	!	!	!	!	!	!	!	!	!	!	!	!	!	!	!	!	!	!	!	!	!	!	!LO:TX:i:t=N 3:color=red	!
!	!	!	!	!LO:DY:b:rj	!	!	!	!LO:DY:b:rj	!	!	!	!	!	!	!	!	!	!	!	!LO:TX:a:t=P:problem:w źródle przy kluczu bemole b- i ee-	!	!LO:TX:a:t=P:problem:w źródle przy kluczu bemole b- i ee-	!	!	!	!LO:TX:i:t=N 7:color=grey	!
8BB-/	8F\	.	8F 8BB-\	p	8dd 8b-\	Wi-	Na	p	8B-/	8b- 8d/	8dd 8f\	8r	8r	8r	8r	8r	.	8r	.	8r	.	8r	.	8r	.	8r	.
8BB-/	8F\	.	8F 8BB-\	.	8dd 8b-\	-dzim	ra-	.	8B-/	8b- 8d/	8dd 8f\	8r	8r	8r	8r	8r	.	8r	.	8r	.	8r	.	8r	.	8r	.
=1	=1	=1	=1	=1	=1	=1	=1	=1	=1	=1	=1	=1	=1	=1	=1	=1	=1	=1	=1	=1	=1	=1	=1	=1	=1	=1	=1
4.BB-/	4.F\	.	4.F 4.BB-\	.	4.dd 4.b-\	du-	-mie-	.	4.B-/	4b- 4d/	4dd 4f\	2.ryy	2.ryy	2.ryy	2.ryy	2.ryy	.	2.ryy	.	2.ryy	.	2.ryy	.	2.ryy	.	2.ryy	.
.	.	.	.	.	.	.	.	.	.	8b- 8d/	8dd 8f\	.	.	.	.	.	.	.	.	.	.	.	.	.	.	.	.
!	!	!	!	!	!	!	!	!LO:HP:a	!	!	!	!	!	!	!	!	!	!	!	!	!	!	!	!	!	!	!
8BB-/L	8F\L	.	8F 8BB-\	.	8dd 8b-\	-cha	-niu	<	8B-/L	4b- 4d/	4dd 4f\	.	.	.	.	.	.	.	.	.	.	.	.	.	.	.	.
8BB-/	8F\	.	8F 8BB-\	.	8dd 8b-\	na	so-	.	8B-/	.	.	.	.	.	.	.	.	.	.	.	.	.	.	.	.	.	.
8BB-/J	8F\J	.	8F 8BB-\	.	8dd 8b-\	wschód	-kół	[[	8B-/J	8b- 8d/	8dd 8f\	.	.	.	.	.	.	.	.	.	.	.	.	.	.	.	.
=2	=2	=2	=2	=2	=2	=2	=2	=2	=2	=2	=2	=2	=2	=2	=2	=2	=2	=2	=2	=2	=2	=2	=2	=2	=2	=2	=2
4.BB-/	4.F\	.	(>4.B- 4.BB-\	.	[>4.ff [<4.dd\	le-	sia-	.	4.B-/	4.dd 4.f\	4.ff 4.d\	2.ryy	2.ryy	2.ryy	2.ryy	2.ryy	.	2.ryy	.	2.ryy	.	2.ryy	.	2.ryy	.	2.ryy	.
!	!	!	!	!	!	!	!	!LO:HP:a	!	!	!	!	!	!	!	!	!	!	!	!	!	!	!	!	!	!	!
4BB-/	4F\	.	4F 4BB-\)	.	4ff] 4dd\]	.	.	>	4F/	4dd 4f\	4ff 4d\	.	.	.	.	.	.	.	.	.	.	.	.	.	.	.	.
8BB-/	8F\	.	8F 8D\	.	8dd 8b-\	-ci	-da	]	8F/	8b-\	8dd 8f\	.	.	.	.	.	.	.	.	.	.	.	.	.	.	.	.
=3	=3	=3	=3	=3	=3	=3	=3	=3	=3	=3	=3	=3	=3	=3	=3	=3	=3	=3	=3	=3	=3	=3	=3	=3	=3	=3	=3
*	*	*	*	*	*^	*	*	*	*	*	*	*	*	*	*	*	*	*	*	*	*	*	*	*	*	*	*
4FF/	4F\	.	4A 4F\	.	4ee- 4cc\	4ryy	Dziar-	I	.	4e- 4A\	4cc\	4ee-\	2.ryy	2.ryy	2.ryy	2.ryy	2.ryy	.	2.ryy	.	2.ryy	.	2.ryy	.	2.ryy	.	2.ryy	.
8FF/	8F\	.	8A 8F\	.	8ee- 8cc\	8ryy	-ski	pies	.	8e- 8A\	8cc\	8ee-\	.	.	.	.	.	.	.	.	.	.	.	.	.	.	.	.
4FF/	4F\	.	4A 4F\	.	8ee-/L	4cc\	pod	bie-	.	4e- 4A\	4cc\	8ee-\L	.	.	.	.	.	.	.	.	.	.	.	.	.	.	.	.
.	.	.	.	.	8ff/J	.	.	.	.	.	.	8ff\	.	.	.	.	.	.	.	.	.	.	.	.	.	.	.	.
8FF/	8F\	.	8A 8F\	.	8ee-/	8cc\	nim	-ży	.	8e- 8A\	8cc\	8ee-\J	.	.	.	.	.	.	.	.	.	.	.	.	.	.	.	.
*	*	*	*	*	*v	*v	*	*	*	*	*	*	*	*	*	*	*	*	*	*	*	*	*	*	*	*	*	*
!!LO:PB:g=original
=4	=4	=4	=4	=4	=4	=4	=4	=4	=4	=4	=4	=4	=4	=4	=4	=4	=4	=4	=4	=4	=4	=4	=4	=4	=4	=4	=4
4.BB-/	4.F\	.	4.F 4.BB-\	.	4.dd 4.b-\	koń	wślad	.	4.d 4.B-\	4.b- 4.d/	4.dd 4.f\	2.ryy	2.ryy	2.ryy	2.ryy	2.ryy	.	2.ryy	.	2.ryy	.	2.ryy	.	2.ryy	.	2.ryy	.
8r	8r	.	8r	.	8r	.	.	.	8r	8r	8r	.	.	.	.	.	.	.	.	.	.	.	.	.	.	.	.
8BB-/	8F\	.	8F 8BB-\	.	8dd 8b-\	na	I	.	8F/	8dd\	8dd\	.	.	.	.	.	.	.	.	.	.	.	.	.	.	.	.
8BB-/	8F\	.	8F 8BB-\	.	8dd 8b-\	nim	przy-	.	8F/	8dd\	8dd\	.	.	.	.	.	.	.	.	.	.	.	.	.	.	.	.
=5	=5	=5	=5	=5	=5	=5	=5	=5	=5	=5	=5	=5	=5	=5	=5	=5	=5	=5	=5	=5	=5	=5	=5	=5	=5	=5	=5
*	*	*	*	*	*	*	*	*	*	*	*	*	*	*	*	*^	*	*	*	*	*	*	*	*	*	*	*
*	*	*	*	*	*	*	*	*	*	*	*	*	*	*	*	*	*	*	*2\right	*	*	*	*	*	*2\right	*	*2\right	*
!	!	!	!	!	!	!	!	!	!	!	!	!	!	!	!	!LO:TX:a:t=1mo	!	!	!	!	!	!	!	!	!	!	!	!
!	!	!	!	!	!	!	!	!	!	!	!	!	!	!	!	!	!	!LO:HP:b	!	!LO:HP:b	!	!LO:HP:a	!	!LO:HP:a	!	!LO:HP:b	!	!LO:HP:b
4.D\	4.D\	.	4.F 4.D\	.	4.ff 4.b-\	zbro-	ja-	.	4.F/	4.b-\	4.ff\	2.ryy	2.ryy	2.ryy	2.ryy	(>2.f/	2.re	<	(>2.D\	<	[>2.B-/	<	(>2.f/	<	(>2.ff\	<	[>2.bb-\	<
!	!	!LO:HP:b	!	!	!	!	!	!	!	!	!	!	!	!	!	!	!	!	!	!	!	!	!	!	!	!	!	!
8D\L	8D\L	<	8F 8D\	.	8ff 8b-\	-ja	cioł	.	8F/L	8b-\L	8ff\L	.	.	.	.	.	.	.	.	.	.	.	.	.	.	.	.	.
8D\	8D\	.	8F 8D\	.	8ff 8b-\	sre-	z nim	.	8F/	8b-\	8ff\	.	.	.	.	.	.	[[	.	[[	.	[	.	[	.	[	.	[
!	!	!	!	!	!	!	!	!	!	!	!	!	!	!	!	!	!	!LO:HP:b	!	!LO:HP:b	!	!LO:HP:a	!	!LO:HP:a	!	!LO:HP:b	!	!LO:HP:b
8D\J	8D\J	[[	8F 8D\	.	8ff 8b-\	-brną	gro-	.	8F/J	8b-\J	8ff\J	.	.	.	.	.	.	>	.	>	.	>	.	>	.	>	.	>
=6	=6	=6	=6	=6	=6	=6	=6	=6	=6	=6	=6	=6	=6	=6	=6	=6	=6	=6	=6	=6	=6	=6	=6	=6	=6	=6	=6	=6
!	!	!LO:HP:b	!	!LO:DY:b:rj:t=fo	!	!	!	!LO:DY:b:rj	!	!	!	!	!	!	!	!	!	!	!	!	!	!	!	!	!	!	!	!
[>4.E-\	[>4.E-\	>	[>4.B- [<4.E-\	f	[>4.gg-X [<4.ee-\	świe-	-ma-	f	4.B-/	4.ee-\	4.gg-X\	2.ryy	2.ryy	2.ryy	2.ryy	2.g-X/)	2.re	.	2.E-\)	.	2.B-/]	.	2.g-X/)	.	2.gg-X\)	.	2.bb-\]	.
4E-\]	4E-\]	]	4B-] 4E-\]	.	4gg-] 4ee-\]	.	.	.	4B-/	4ee-\	4gg-\	.	.	.	.	.	.	]	.	]	.	]	.	]	.	]]	.	]]
8E-\	8E-\	.	8B- 8E-\	.	8gg- 8ee-\	-ci	-da	.	8B-/	8ee-\	8gg-\	.	.	.	.	.	.	.	.	.	.	.	.	.	.	.	.	.
*	*	*	*	*	*	*	*	*	*	*	*	*	*	*	*	*v	*v	*	*	*	*	*	*	*	*	*	*	*
=7	=7	=7	=7	=7	=7	=7	=7	=7	=7	=7	=7	=7	=7	=7	=7	=7	=7	=7	=7	=7	=7	=7	=7	=7	=7	=7	=7
*	*	*	*	*	*^	*	*	*	*	*	*	*	*	*	*	*	*	*	*	*	*	*	*	*	*	*	*
!	!	!	!	!	!	!	!	!	!LO:DY:a:rj	!	!	!	!	!	!	!	!	!	!	!	!	!	!	!	!	!	!	!
4F\	4F\	.	4A 4F\	.	4ff 4cc\	4ryy	W zło-	Wscho-	p	4A/	4cc\	4ff\	2.ryy	2.ryy	2.ryy	2.ryy	2.ryy	.	2.ryy	.	2.ryy	.	2.ryy	.	2.ryy	.	2.ryy	.
8F\	8F\	.	8A 8F\	.	8cc\	8ryy	-tym	-dni	.	8A/	8cc\	8cc\	.	.	.	.	.	.	.	.	.	.	.	.	.	.	.	.
.	.	.	.	.	8qqdd/	.	.	.	.	.	.	.	.	.	.	.	.	.	.	.	.	.	.	.	.	.	.	.
!	!	!	!	!LO:DY:a:rj	!	!	!	!	!	!	!	!	!	!	!	!	!	!	!	!	!	!	!	!	!	!	!	!
4FF/	4F\	.	4A 4F\	p	8cc/L	4a\	heł-	le-	.	4A/	4a/	8cc\L	.	.	.	.	.	.	.	.	.	.	.	.	.	.	.	.
.	.	.	.	.	8b-/J	.	.	.	.	.	.	8b-\	.	.	.	.	.	.	.	.	.	.	.	.	.	.	.	.
8FF/	8F\	.	8A 8F\	.	8cc/	8a\	-mie	-cą	.	8A/	8a/	8cc\J	.	.	.	.	.	.	.	.	.	.	.	.	.	.	.	.
*	*	*	*	*	*v	*v	*	*	*	*	*	*	*	*	*	*	*	*	*	*	*	*	*	*	*	*	*	*
=8	=8	=8	=8	=8	=8	=8	=8	=8	=8	=8	=8	=8	=8	=8	=8	=8	=8	=8	=8	=8	=8	=8	=8	=8	=8	=8	=8
*	*	*	*^	*	*	*	*	*	*	*	*	*	*	*	*	*	*	*	*	*	*	*	*	*	*	*	*
*	*	*	*	*	*	*	*	*	*	*	*	*2\right	*	*	*	*	*	*	*	*	*	*	*	*	*	*	*	*
!LO:TX:a:t=arco	!LO:TX:a:t=arco	!	!	!	!	!	!	!	!	!LO:TX:a:t=arco	!LO:TX:a:t=arco	!LO:TX:a:t=arco	!	!	!	!	!	!	!	!	!	!	!	!	!	!	!	!
2.BBn/	2.BBn/	.	[>4.F\	[<4.BBn\	.	[>4.dd [<4.g#X\	skoń-	świat	.	2.F/	2.g#X/	2.dd\	2.ryy	2.ryy	2.ryy	2.ryy	2.ryy	.	2.ryy	.	2.ryy	.	2.ryy	.	2.ryy	.	2.ryy	.
.	.	.	4F\_>	4BB\]	.	4dd] 4g#\]	.	.	.	.	.	.	.	.	.	.	.	.	.	.	.	.	.	.	.	.	.	.
.	.	.	8F/]	8r	.	8r	.	.	.	.	.	.	.	.	.	.	.	.	.	.	.	.	.	.	.	.	.	.
!!LO:PB:g=original
=9	=9	=9	=9	=9	=9	=9	=9	=9	=9	=9	=9	=9	=9	=9	=9	=9	=9	=9	=9	=9	=9	=9	=9	=9	=9	=9	=9	=9
*	*	*	*	*	*	*	*	*	*	*	*	*	*	*	*	*	*^	*	*	*	*	*	*	*	*	*	*	*
!	!	!	!	!	!LO:DY:b:rj	!	!	!	!LO:DY:b:rj	!	!	!	!	!	!	!	!	!	!	!	!	!	!	!	!	!	!	!	!
4C\	4C\	.	4F 4C\	4ryy	p	4ff 4a\	w zło-	wscho-	p	2.F/	(>4A/	(>4ff\	2.ryy	2.ryy	2.ryy	2.ryy	2.f/	2.re	.	2.ryy	.	2.ryy	.	2.ryy	.	2.ryy	.	2.ryy	.
!	!	!	!	!	!	!	!	!	!	!	!	!	!	!	!	!	!	!	!LO:HP:a	!	!	!	!	!	!	!	!	!	!
8E-\	8E-\	.	8F 8E-\	8ryy	.	8cc 8a\	-tym	-dni	.	.	8B-/)	8cc\)	.	.	.	.	.	.	<	.	.	.	.	.	.	.	.	.	.
8E-\L	8E-\L	.	4F/	8E-\L	.	8ccL 8a\	hel-	le-	.	.	(<8a/L	(>8cc\L	.	.	.	.	.	.	.	.	.	.	.	.	.	.	.	.	.
8D\	8D\	.	.	8D\J	.	8b-\J	.	.	.	.	8f/)	8b-\	.	.	.	.	.	.	[[	.	.	.	.	.	.	.	.	.	.
8C\J	8C\J	.	8E-/	8C\	.	8a 8f\	-mie	-cą	.	.	8f/J	8a\J)	.	.	.	.	.	.	.	.	.	.	.	.	.	.	.	.	.
*	*	*	*v	*v	*	*	*	*	*	*	*	*	*	*	*	*	*	*	*	*	*	*	*	*	*	*	*	*	*
=10	=10	=10	=10	=10	=10	=10	=10	=10	=10	=10	=10	=10	=10	=10	=10	=10	=10	=10	=10	=10	=10	=10	=10	=10	=10	=10	=10	=10
!	!	!	!	!	!	!	!	!	!	!	!	!	!	!	!	!	!	!LO:HP:a	!	!	!	!	!	!	!	!	!	!
[>4.BB-/	[>4.BB-\	.	[>4.D [<4.BB-/	.	[>4.b- [<4.f/	skroń	swiat	.	[>4.D/	[>4.f/	[>4.b-\	2.ryy	2.ryy	2.ryy	2.ryy	[>4.f/	2.re	[ >	2.ryy	.	2.ryy	.	2.ryy	.	2.ryy	.	2.ryy	.
8BB-/]	8BB-\]	.	8D] 8BB-/]	.	8b-] 8f/]	.	.	.	8D/]	8f/]	8b-\]	.	.	.	.	8f/]	.	]	.	.	.	.	.	.	.	.	.	.
!LO:TX:a:t=pizz.	!LO:TX:a:t=pizz	!	!	!	!	!	!	!	!LO:TX:a:t=pizz.	!LO:TX:a:t=pizz.	!LO:TX:a:t=pizz	!	!	!	!	!	!	!	!	!	!	!	!	!	!	!	!	!
8BB-/	8F\	.	8F 8BB-\	.	8dd 8b-\	Już	Za	.	8B-/	8b- 8d/	8dd 8f\	.	.	.	.	8r	.	.	.	.	.	.	.	.	.	.	.	.
8BB-/	8F\	.	8F 8BB-\	.	8dd 8b-\	po	nim	.	8B-/	8b- 8d/	8dd 8f\	.	.	.	.	8r	.	.	.	.	.	.	.	.	.	.	.	.
*	*	*	*	*	*	*	*	*	*	*	*	*	*	*	*	*v	*v	*	*	*	*	*	*	*	*	*	*	*
=11	=11	=11	=11	=11	=11	=11	=11	=11	=11	=11	=11	=11	=11	=11	=11	=11	=11	=11	=11	=11	=11	=11	=11	=11	=11	=11	=11
4.BB-/	4.F\	.	4.F 4.BB-\	.	4.dd 4.b-\	pła-	oj-	.	4.B-/	4.b- 4.d/	4dd 4f\	2.ryy	2.ryy	2.ryy	2.ryy	2.ryy	.	2.ryy	.	2.ryy	.	2.ryy	.	2.ryy	.	2.ryy	.
.	.	.	.	.	.	.	.	.	.	.	8dd 8f\	.	.	.	.	.	.	.	.	.	.	.	.	.	.	.	.
8BB-/L	8F\L	.	8F 8BB-\	.	8dd 8b-\	-skiej	-ców	.	8B-/L	8b-L 8d/	4dd 4f\	.	.	.	.	.	.	.	.	.	.	.	.	.	.	.	.
8BB-/	8F\	.	8F 8BB-\	.	8dd 8b-\	dro-	cie-	.	8B-/	8b- 8d/	.	.	.	.	.	.	.	.	.	.	.	.	.	.	.	.	.
8BB-/J	8F\J	.	8F 8BB-\	.	8dd 8b-\	-dze	-nie	.	8B-/J	8b-J 8d/	8dd\ 8f\	.	.	.	.	.	.	.	.	.	.	.	.	.	.	.	.
=12	=12	=12	=12	=12	=12	=12	=12	=12	=12	=12	=12	=12	=12	=12	=12	=12	=12	=12	=12	=12	=12	=12	=12	=12	=12	=12	=12
[<4.BB-/	[>4.F\	.	(>4.B- [<4.BB-\	.	[>4.ff [<4.dd\	ści-	pły-	.	4.B-/	4.dd 4.f\	4.ff 4.d\	2.ryy	2.ryy	2.ryy	2.ryy	2.ryy	.	2.ryy	.	2.ryy	.	2.ryy	.	2.ryy	.	2.ryy	.
4BB-/]	4F\]	.	4F 4BB-\])	.	4ff] 4dd\]	.	.	.	4F/	4dd 4f\	4ff 4d\	.	.	.	.	.	.	.	.	.	.	.	.	.	.	.	.
8BB-/	8F\	.	8F 8D\	.	8dd 8b-\	-ga	-ną	.	8F/	8b-\	8dd\ 8f\	.	.	.	.	.	.	.	.	.	.	.	.	.	.	.	.
=13	=13	=13	=13	=13	=13	=13	=13	=13	=13	=13	=13	=13	=13	=13	=13	=13	=13	=13	=13	=13	=13	=13	=13	=13	=13	=13	=13
*	*	*	*	*	*^	*	*	*	*	*	*	*	*	*	*	*	*	*	*	*	*	*	*	*	*	*	*
!	!	!	!	!	!	!LO:N:vis=4.	!	!	!	!	!	!	!	!	!	!	!	!	!	!	!	!	!	!	!	!	!	!
4FF/	4F\	.	4A 4F\	.	4ee-/	4cc\	Przez	gwiaz-	.	4e- 4A\	4cc\	4ee-\	2.ryy	2.ryy	2.ryy	2.ryy	2.ryy	.	2.ryy	.	2.ryy	.	2.ryy	.	2.ryy	.	2.ryy	.
8FF/	8F\	.	8A 8F\	.	8ee-/	8cc\	nie-	-dy	.	8e- 8A\	8cc\	8ee-\	.	.	.	.	.	.	.	.	.	.	.	.	.	.	.	.
4FF/	4F\	.	4A 4F\	.	8ee-/L	4cc\	-ba	swie-	.	4e- 4A\	4cc\	8ee-\L	.	.	.	.	.	.	.	.	.	.	.	.	.	.	.	.
.	.	.	.	.	8ff/J	.	.	.	.	.	.	8ff\	.	.	.	.	.	.	.	.	.	.	.	.	.	.	.	.
8FF/	8F\	.	8A 8F\	.	8ee-/	8cc\	na	-cą	.	8e- 8A\	8cc\	8ee-\J	.	.	.	.	.	.	.	.	.	.	.	.	.	.	.	.
*	*	*	*	*	*v	*v	*	*	*	*	*	*	*	*	*	*	*	*	*	*	*	*	*	*	*	*	*	*
!!LO:PB:g=original
=14	=14	=14	=14	=14	=14	=14	=14	=14	=14	=14	=14	=14	=14	=14	=14	=14	=14	=14	=14	=14	=14	=14	=14	=14	=14	=14	=14
4.BB-/	4.F\	.	4.F 4.BB-\	.	4.dd 4.b-\	wschód	z gór	.	4.d 4.B-\	4.b- 4.d/	4.dd 4.f\	2.ryy	2.ryy	2.ryy	2.ryy	2.ryy	.	2.ryy	.	2.ryy	.	2.ryy	.	2.ryy	.	2.ryy	.
8r	8r	.	8r	.	8r	.	.	.	8r	8r	8r	.	.	.	.	.	.	.	.	.	.	.	.	.	.	.	.
8BB-/	8F\	.	8F 8BB-\	.	8dd 8b-\	W każ-	Le-	.	8F/	8dd\	8dd\	.	.	.	.	.	.	.	.	.	.	.	.	.	.	.	.
8BB-/	8F\	.	8F 8BB-\	.	8dd 8b-\	-dym	-cą	.	8F/	8dd\	8dd\	.	.	.	.	.	.	.	.	.	.	.	.	.	.	.	.
=15	=15	=15	=15	=15	=15	=15	=15	=15	=15	=15	=15	=15	=15	=15	=15	=15	=15	=15	=15	=15	=15	=15	=15	=15	=15	=15	=15
*	*	*	*	*	*	*	*	*	*	*	*	*	*	*	*	*^	*	*	*	*	*	*	*	*	*	*	*
*	*	*	*	*	*	*	*	*	*	*	*	*	*	*	*	*2\right	*	*	*	*	*	*	*	*	*	*	*	*
!	!	!	!	!	!	!	!	!	!	!	!	!	!	!	!	!	!	!LO:HP:b	!	!LO:HP:b	!	!LO:HP:b	!	!LO:HP:b	!	!LO:HP:b	!	!LO:HP:b
4.D\	4.D\	.	4.F 4.D\	.	4.ff 4.b-\	rę-	le-	.	4.F/	4.b-\	4.ff\	2.ryy	2.ryy	2.ryy	2.ryy	(2.f\	2.re	<	(>2.D\	<	[>2.B-/	<	(>2.f/	<	(>2.ff\	<	[>2.bb-\	<
!	!	!	!	!	!	!	!	!LO:HP:a	!	!	!	!	!	!	!	!	!	!	!	!	!	!	!	!	!	!	!	!
8D\L	8D\L	.	8F 8D\	.	8ff 8b-\	-ku	-cą	<	8F/L	8b-\L	8ff\L	.	.	.	.	.	.	.	.	.	.	.	.	.	.	.	.	.
8D\	8D\	.	8F 8D\	.	8ff 8b-\	trzy	le-	.	8F/	8b-\	8ff\	.	.	.	.	.	.	[	.	[[	.	[[	.	[[	.	[[	.	[[
!	!	!	!	!	!	!	!	!	!	!	!	!	!	!	!	!	!	!LO:HP:b	!	!LO:HP:b	!	!LO:HP:b	!	!LO:HP:b	!	!LO:HP:b	!	!LO:HP:b
8D\J	8D\J	.	8F 8D\	.	8ff 8b-\	gwiazd	-cą	[	8F/J	8b-\J	8ff\J	.	.	.	.	.	.	>	.	>	.	>	.	>	.	>	.	>
=16	=16	=16	=16	=16	=16	=16	=16	=16	=16	=16	=16	=16	=16	=16	=16	=16	=16	=16	=16	=16	=16	=16	=16	=16	=16	=16	=16	=16
!	!	!	!	!	!	!	!	!LO:HP:a	!	!	!	!	!	!	!	!	!	!	!	!	!	!	!	!	!	!	!	!
4.E-\	4.E-\	.	[>4.B- [<4.E-\	.	[>4.gg-X [<4.ee-\	dźwi-	gi-	>	4.B-/	4.ee-\	4.gg-X\	2.ryy	2.ryy	2.ryy	2.ryy	2.g-X\)	2.re	.	2.E-\)	.	2.B-/]	.	2.g-X/)	.	2.gg-X\)	.	2.bb-\]	.
4E-\	4E-\	.	4B-] 4E-\]	.	4gg-] 4ee-\]	.	.	]	4B-/	4ee-\	4gg-\	.	.	.	.	.	.	]	.	]	.	]	.	]	.	]]	.	]
8E-\	8E-\	.	8B- 8E-\	.	8gg- 8ee-\	-ga	-ną	.	8B-/	8ee-\	8gg-\	.	.	.	.	.	.	.	.	.	.	.	.	.	.	.	.	.
*	*	*	*	*	*	*	*	*	*	*	*	*	*	*	*	*v	*v	*	*	*	*	*	*	*	*	*	*	*
=17	=17	=17	=17	=17	=17	=17	=17	=17	=17	=17	=17	=17	=17	=17	=17	=17	=17	=17	=17	=17	=17	=17	=17	=17	=17	=17	=17
*	*	*	*	*	*^	*	*	*	*	*	*	*	*	*	*	*	*	*	*	*	*	*	*	*	*	*	*
4F\	4F\	.	4A 4F\	.	4ff 4cc\	4ryy	któ-	w zło-	.	4A/	4cc\	4ff\	2.ryy	2.ryy	2.ryy	2.ryy	2.ryy	.	2.ryy	.	2.ryy	.	2.ryy	.	2.ryy	.	2.ryy	.
8F\	8F\	.	8A 8F\	.	8cc\	8ryy	-re	-tym	.	8A/	8cc\	8cc\	.	.	.	.	.	.	.	.	.	.	.	.	.	.	.	.
.	.	.	.	.	8qdd/	.	.	.	.	.	.	.	.	.	.	.	.	.	.	.	.	.	.	.	.	.	.	.
4FF/	4F\	.	4A 4F\	.	8cc/L	4a\	z nie-	płasz-	.	4A/	4a\	8cc\L	.	.	.	.	.	.	.	.	.	.	.	.	.	.	.	.
.	.	.	.	.	8b-/J	.	.	.	.	.	.	8b-\	.	.	.	.	.	.	.	.	.	.	.	.	.	.	.	.
8FF/	8F\	.	8A 8F\	.	8cc/	8a\	-ba	-czu	.	8A/	8a\	8cc\J	.	.	.	.	.	.	.	.	.	.	.	.	.	.	.	.
*	*	*	*	*	*v	*v	*	*	*	*	*	*	*	*	*	*	*	*	*	*	*	*	*	*	*	*	*	*
=18	=18	=18	=18	=18	=18	=18	=18	=18	=18	=18	=18	=18	=18	=18	=18	=18	=18	=18	=18	=18	=18	=18	=18	=18	=18	=18	=18
*	*	*	*^	*	*	*	*	*	*	*	*	*	*	*	*	*	*	*	*	*	*	*	*	*	*	*	*
!LO:TX:a:t=arco	!LO:TX:a:t=arco	!	!	!	!	!	!	!	!	!LO:TX:a:t=arco	!LO:TX:a:t=arco	!LO:TX:a:t=arco	!	!	!	!	!	!	!	!	!	!	!	!	!	!	!	!
2.BBn/	2.BBn/	.	[>4.F\	[<4.BBn\	.	[>4.dd [<4.g#X\	zmiotł.	chmur	.	2.F/	2.g#X/	2.dd\	2.ryy	2.ryy	2.ryy	2.ryy	2.ryy	.	2.ryy	.	2.ryy	.	2.ryy	.	2.ryy	.	2.ryy	.
.	.	.	4F\]	4BB\_>	.	4dd] 4g#\]	.	.	.	.	.	.	.	.	.	.	.	.	.	.	.	.	.	.	.	.	.	.
.	.	.	8r	8BB\]	.	8r	.	.	.	.	.	.	.	.	.	.	.	.	.	.	.	.	.	.	.	.	.	.
*	*	*	*v	*v	*	*	*	*	*	*	*	*	*	*	*	*	*	*	*	*	*	*	*	*	*	*	*	*
!!LO:PB:g=original
=19	=19	=19	=19	=19	=19	=19	=19	=19	=19	=19	=19	=19	=19	=19	=19	=19	=19	=19	=19	=19	=19	=19	=19	=19	=19	=19	=19
*	*	*	*	*	*	*	*	*	*	*	*	*	*	*	*	*^	*	*	*	*	*	*	*	*	*	*	*
!	!	!	!	!	!	!	!	!LO:DY:a:rj	!	!	!	!	!	!	!	!LO:TX:a:t=1mo	!	!	!	!	!	!	!	!	!	!	!	!
4C/	4C/	.	4F 4C\	.	4ff 4a\	któ-	w zło-	p	2.F/	(>4A/	(>4ff\	2.ryy	2.ryy	2.ryy	2.ryy	2.f/	2.re	.	2.ryy	.	2.ryy	.	2.ryy	.	2.ryy	.	2.ryy	.
8E-\	8E-\	.	8F 8E-\	.	8cc 8a\	-re	-tym	.	.	8B-/)	8cc\)	.	.	.	.	.	.	.	.	.	.	.	.	.	.	.	.	.
8E-\L	8E-\L	.	8E-\L	.	8ccL 8a\	z nie-	płasz-	.	.	(<8a/L	8cc\L	.	.	.	.	.	.	.	.	.	.	.	.	.	.	.	.	.
8D\	8D\	.	8D\J	.	8b-\J	.	.	.	.	8f/)	8b-\	.	.	.	.	.	.	.	.	.	.	.	.	.	.	.	.	.
8C\J	8C\J	.	8C/	.	8a 8f\	-ba	-czu	.	.	8f/J	8a\J	.	.	.	.	.	.	.	.	.	.	.	.	.	.	.	.	.
=20	=20	=20	=20	=20	=20	=20	=20	=20	=20	=20	=20	=20	=20	=20	=20	=20	=20	=20	=20	=20	=20	=20	=20	=20	=20	=20	=20	=20
[>4.BB-/	[>4.BB-/	.	[>4.D [<4.BB-\	.	[>4.b- [<4.f/	zmiotł.	chmur.	.	[<4.D/	[>4.f/	[>4.b-\	4r	4r	4r	4r	[>4.f/	4rg	.	4r	.	4r	.	4r	.	4r	.	4r	.
.	.	.	.	.	.	.	.	.	.	.	.	8r	8r	8r	8r	.	8rg	.	8r	.	8r	.	8r	.	8r	.	8r	.
8BB-/]	8BB-/]	.	8D] 8BB-\]	.	8b-] 8f/]	.	.	.	8D/]	8f/]	8b-\]	8r	8r	8r	8r	8f/]	8rg	.	8r	.	8r	.	8r	.	8r	.	8r	.
*	*	*	*	*	*	*	*	*	*	*	*	*	*	*	*	*v	*v	*	*	*	*	*	*	*	*	*	*	*
=:|!	=:|!	=:|!	=:|!	=:|!	=:|!	=:|!	=:|!	=:|!	=:|!	=:|!	=:|!;>	=:|!	=:|!	=:|!	=:|!	=:|!	=:|!	=:|!	=:|!	=:|!	=:|!	=:|!	=:|!	=:|!	=:|!	=:|!	=:|!
*-	*-	*-	*-	*-	*-	*-	*-	*-	*-	*-	*-	*-	*-	*-	*-	*-	*-	*-	*-	*-	*-	*-	*-	*-	*-	*-	*-
!!!system-decoration: [(s1,s2,s3,s4,s5,s6,s7,s8,s9,s10)][(s11,s12,s13,s14,s15,s16,s17)]
!!!RDF**kern: > = above
!!!RDF**kern: < = below
!!!ENC: Marcin Jachim
!!!END: 2021-08-06
!!!EED: Antoni Szymański
!!!EST: 2021-09-09
